public/arrowimg.svg

<svg width="70" height="56" viewBox="0 0 70 56" fill="none" xmlns="http://www.w3.org/2000/svg">
<path d="M2 52.0149C15.2818 54.6278 25.5214 56.2904 35.6845 46.1274C40.5355 41.2764 41.7141 34.7239 38.2905 28.5612C32.0605 17.3467 20.252 34.2379 28.9283 39.6607C44.834 49.602 59.0029 29.8175 61.2616 16.014C61.9198 11.9914 62.5937 7.40327 62.8059 3.37019C62.9901 -0.128104 63.909 4.02583 64.3502 5.30054C65.1676 7.66206 66.5432 9.55534 67.3423 11.8637C68.7405 15.903 67.0115 12.2023 66.4736 10.3194C64.9304 4.91849 64.8278 -0.099801 59.3313 5.1075C58.2252 6.15542 52.1449 11.058 53.2507 11.1881C56.3858 11.5569 59.8732 13.6216 62.8059 13.7941C66.8205 14.0302 69.0298 15.41 63.6746 12.7324C61.9272 11.8587 60.2075 11.288 58.4626 10.5125C55.5871 9.23443 59.6734 10.2457 60.0069 10.5125C60.9756 11.2875 63.633 11.6522 61.0686 10.5125C60.4084 10.219 57.5863 9.45079 58.4626 9.45079C61.2298 9.45079 64.8708 12.2145 63.8676 10.3194C63.0245 8.72693 61.9315 8.48025 60.1999 8.58211C59.6105 8.61678 57.4667 10.3194 58.4627 10.3194" stroke="#B7A7FF" stroke-width="2.71455" stroke-linecap="round"/>
</svg>

<svg xmlns="http://www.w3.org/2000/svg" width="70" height="56" fill="none" viewBox="0 0 70 56"><path stroke="#b7a7ff" stroke-linecap="round" stroke-width="2.715" d="M2 52.015c13.282 2.613 23.521 4.275 33.685-5.888 4.85-4.85 6.03-11.403 2.605-17.566-6.23-11.214-18.038 5.677-9.362 11.1 15.906 9.941 30.075-9.844 32.334-23.647.658-4.023 1.332-8.61 1.544-12.644.184-3.498 1.103.656 1.544 1.93.818 2.362 2.193 4.255 2.992 6.564 1.398 4.039-.33.338-.868-1.545C64.93 4.92 64.828-.1 59.33 5.107c-1.106 1.048-7.186 5.951-6.08 6.081 3.135.369 6.622 2.434 9.555 2.606 4.014.236 6.224 1.616.869-1.062-1.748-.873-3.467-1.444-5.212-2.22-2.876-1.278 1.21-.266 1.544 0 .969.775 3.626 1.14 1.062 0-.66-.293-3.483-1.061-2.606-1.061 2.767 0 6.408 2.763 5.405.868-.843-1.592-1.937-1.839-3.668-1.737-.59.035-2.733 1.737-1.737 1.737"/></svg>
